X: 42431
T: West Wind, The
R: reel
M: 4/4
K: Gmajor
B/c/d GA BGBd|cAFG ABc2|B/c/d GA BGBd|cAFA G2GA|
B2BG c2cA|d2dB cdef|g3a gfdg|fdcA BGAF||
G2Bd gfde|=f2af ABcA|G2Bd gfdg|fdcA BGAF|
G2Bd gfde|=f2af ABcA|~g3a bgag|fdcA BGG2||

